packages/icons/svg/24/File.svg

<svg width="24" height="24" viewBox="0 0 24 24" fill="none" xmlns="http://www.w3.org/2000/svg">
<path fill-rule="evenodd" clip-rule="evenodd" d="M7 2C5.34315 2 4 3.34315 4 5V19C4 20.6569 5.34315 22 7 22H17C18.6569 22 20 20.6569 20 19V8.82843C20 8.29799 19.7893 7.78929 19.4142 7.41421L14.5858 2.58579C14.2107 2.21071 13.702 2 13.1716 2H7ZM13 3.5V8C13 8.55 13.45 9 14 9H18.5L13 3.5Z" fill="#858585"/>
</svg>

<svg width="24" height="24" fill="none" xmlns="http://www.w3.org/2000/svg" viewBox="0 0 24 24"><path fill-rule="evenodd" clip-rule="evenodd" d="M7 2a3 3 0 00-3 3v14a3 3 0 003 3h10a3 3 0 003-3V8.828a2 2 0 00-.586-1.414l-4.828-4.828A2 2 0 0013.172 2H7zm6 1.5V8c0 .55.45 1 1 1h4.5L13 3.5z" fill="currentColor"></path></svg>
